resources/icons/nf_4.svg

<?xml version="1.0" encoding="UTF-8" standalone="no"?>
<!-- Created with Inkscape (http://www.inkscape.org/) -->

<svg
   xmlns:dc="http://purl.org/dc/elements/1.1/"
   xmlns:cc="http://creativecommons.org/ns#"
   xmlns:rdf="http://www.w3.org/1999/02/22-rdf-syntax-ns#"
   xmlns:svg="http://www.w3.org/2000/svg"
   xmlns="http://www.w3.org/2000/svg"
   xmlns:sodipodi="http://sodipodi.sourceforge.net/DTD/sodipodi-0.dtd"
   xmlns:inkscape="http://www.inkscape.org/namespaces/inkscape"
   width="200"
   height="200"
   viewBox="0 0 200 200"
   id="svg7476"
   version="1.1"
   inkscape:version="0.91 r13725"
   sodipodi:docname="nf_4.svg">
  <defs
     id="defs7478" />
  <sodipodi:namedview
     id="base"
     pagecolor="#ffffff"
     bordercolor="#666666"
     borderopacity="1.0"
     inkscape:pageopacity="0.0"
     inkscape:pageshadow="2"
     inkscape:zoom="1.979899"
     inkscape:cx="21.003217"
     inkscape:cy="91.428572"
     inkscape:document-units="px"
     inkscape:current-layer="layer1"
     showgrid="true"
     units="px"
     inkscape:window-width="1366"
     inkscape:window-height="719"
     inkscape:window-x="0"
     inkscape:window-y="25"
     inkscape:window-maximized="1"
     inkscape:snap-bbox="true"
     inkscape:bbox-nodes="true">
    <inkscape:grid
       spacingx="5"
       spacingy="5"
       type="xygrid"
       id="grid8024" />
  </sodipodi:namedview>
  <metadata
     id="metadata7481">
    <rdf:RDF>
      <cc:Work
         rdf:about="">
        <dc:format>image/svg+xml</dc:format>
        <dc:type
           rdf:resource="http://purl.org/dc/dcmitype/StillImage" />
        <dc:title></dc:title>
      </cc:Work>
    </rdf:RDF>
  </metadata>
  <g
     inkscape:label="Layer 1"
     inkscape:groupmode="layer"
     id="layer1"
     transform="translate(0,-852.36216)">
    <path
       style="fill:#000000;fill-opacity:1;stroke:none;stroke-width:15.19999981;stroke-linecap:round;stroke-miterlimit:4;stroke-dasharray:none;stroke-opacity:1"
       d="M 100,0 C 44.771525,0 0,44.771525 0,100 0,155.22847 44.771525,200 100,200 155.22847,200 200,155.22847 200,100 200,44.771525 155.22847,0 100,0 Z M 70,50 C 81.045695,50 90,58.954305 90,70 90,81.045695 81.045695,90 70,90 58.954305,90 50,81.045695 50,70 50,58.954305 58.954305,50 70,50 Z m 60,0 c 11.04569,0 20,8.954305 20,20 0,11.045695 -8.95431,20 -20,20 -11.04569,0 -20,-8.954305 -20,-20 0,-11.045695 8.95431,-20 20,-20 z m -90,70 c 9.10893,4.77134 18.216701,8.0857 27.115234,10.28906 l 17.986292,27.79216 5.287505,-24.58395 c 13.065569,1.60387 8.206592,1.05885 19.024669,-0.49414 l 7,23.56287 16.78161,-27.05428 C 149.6153,125.423 160,120 160,120 c 0,0 -30,55 -60,55 -30,0 -60,-55 -60,-55 z"
       transform="translate(0,852.36216)"
       id="path10677"
       inkscape:connector-curvature="0"
       sodipodi:nodetypes="sssssssssssssssccccccccsc" />
  </g>
</svg>

<?xml version="1.0" encoding="UTF-8" standalone="no"?>
<!-- Created with Inkscape (http://www.inkscape.org/) -->

<svg
   xmlns:dc="http://purl.org/dc/elements/1.1/"
   xmlns:cc="http://creativecommons.org/ns#"
   xmlns:rdf="http://www.w3.org/1999/02/22-rdf-syntax-ns#"
   xmlns:svg="http://www.w3.org/2000/svg"
   xmlns="http://www.w3.org/2000/svg"
   xmlns:sodipodi="http://sodipodi.sourceforge.net/DTD/sodipodi-0.dtd"
   xmlns:inkscape="http://www.inkscape.org/namespaces/inkscape"
   width="200"
   height="200"
   viewBox="0 0 200 200"
   id="svg7476"
   version="1.1"
   inkscape:version="0.91 r13725"
   sodipodi:docname="nf_4.svg">
  <defs
     id="defs7478" />
  <sodipodi:namedview
     id="base"
     pagecolor="#ffffff"
     bordercolor="#666666"
     borderopacity="1.0"
     inkscape:pageopacity="0.0"
     inkscape:pageshadow="2"
     inkscape:zoom="1.979899"
     inkscape:cx="21.003217"
     inkscape:cy="91.428572"
     inkscape:document-units="px"
     inkscape:current-layer="layer1"
     showgrid="true"
     units="px"
     inkscape:window-width="1366"
     inkscape:window-height="719"
     inkscape:window-x="0"
     inkscape:window-y="25"
     inkscape:window-maximized="1"
     inkscape:snap-bbox="true"
     inkscape:bbox-nodes="true">
    <inkscape:grid
       spacingx="5"
       spacingy="5"
       type="xygrid"
       id="grid8024" />
  </sodipodi:namedview>
  <metadata
     id="metadata7481">
    <rdf:RDF>
      <cc:Work
         rdf:about="">
        <dc:format>image/svg+xml</dc:format>
        <dc:type
           rdf:resource="http://purl.org/dc/dcmitype/StillImage" />
        <dc:title></dc:title>
      </cc:Work>
    </rdf:RDF>
  </metadata>
  <g
     inkscape:label="Layer 1"
     inkscape:groupmode="layer"
     id="layer1"
     transform="translate(0,-852.36216)">
    <path
       style="fill:#000000;fill-opacity:1;stroke:none;stroke-width:15.2;stroke-linecap:round;stroke-miterlimit:4;stroke-dasharray:none;stroke-opacity:1"
       d="M 100 0 A 100 100 0 0 0 0 100 A 100 100 0 0 0 100 200 A 100 100 0 0 0 200 100 A 100 100 0 0 0 100 0 z M 70 50 A 20 20 0 0 1 90 70 A 20 20 0 0 1 70 90 A 20 20 0 0 1 50 70 A 20 20 0 0 1 70 50 z M 130 50 A 20 20 0 0 1 150 70 A 20 20 0 0 1 130 90 A 20 20 0 0 1 110 70 A 20 20 0 0 1 130 50 z M 40 120 C 49.10893 124.77134 58.216701 128.0857 67.115234 130.28906 L 75 150 L 81.802734 132.99219 C 94.868306 134.59606 107.18192 134.05104 118 132.49805 L 125 150 L 133.19531 129.51172 C 149.6153 125.423 160 120 160 120 C 160 120 130 175 100 175 C 70 175 40 120 40 120 z "
       transform="translate(0,852.36216)"
       id="path10677" />
  </g>
</svg>
